X:1
T:Bound For Greenland
M:4/4
L:1/4
K:G
 E3/4- F/4| G G3/4- A/4 B A3/4- G/4| B d d B3/4- A/4| B d d3/4- c/4 B3/4- d/4|\
 e3| d| d e3/4- d/4 B B3/4- A/4| A B D E| G A3/4- G/4 E E| E3||

